X: 30073
T: Duke of Kent
S: A Ogilvie Grey Album
N: Dance from Alexander Bowman Manuscript, Laing Collection
B: RSCDS 30-7
O: RSCDS 30-7
R: reel
Z: 2010 John Chambers <jc:trillian.mit.edu>
M: C|
L: 1/8
%--------------------
K: C
|: "C"C2EC cCEC | "Dm"FEDE "G7"FDdD | "C"EDCD EF"A7/C#"GE | "Dm"FD"G"GE "C"C2C2 |
|  "C"C2EC cCEC | "Dm"FEDE "G7"FDdD | "C"EDCD EF"A7/C#"GE | "Dm"FD"G"GE "C"C2C2 ||
[| "C"e2dc e2dc | "Dm"dcBc "G7"defd | "C"e2dc "F"Ac"C"Gc | "G7"edcB "C"c2c2 |
|  "C"e2dc e2dc | "Dm"dcBc "G7"defd | "C"ec"G"dB "Am"cA"G"BG | "F"AF"C"GE "Dm"FE"C"DE :|
[| "C"C2EC cCEC | "Dm"FEDE "G7"FDdD | "C"EDCD EF"A7/C#"GE | "Dm"FD"G"GE "C"C2C2 |
|  "C"C2EC cCEC | "Dm"FEDE "G7"FDdD | "C"EDCD EF"A7/C#"GE | "Dm"FD"G"GE "C"C2C2 |]
%%center Book30/30071-Duke_of_Kent-4.abc

%%sep 1 1 500
%%sep 1 1 500

